icons/mimetypes/64/image-x-tga.svg

<?xml version="1.0" encoding="UTF-8" standalone="no"?>
<svg
   xmlns:dc="http://purl.org/dc/elements/1.1/"
   xmlns:cc="http://creativecommons.org/ns#"
   xmlns:rdf="http://www.w3.org/1999/02/22-rdf-syntax-ns#"
   xmlns:svg="http://www.w3.org/2000/svg"
   xmlns="http://www.w3.org/2000/svg"
   xmlns:xlink="http://www.w3.org/1999/xlink"
   xmlns:sodipodi="http://sodipodi.sourceforge.net/DTD/sodipodi-0.dtd"
   xmlns:inkscape="http://www.inkscape.org/namespaces/inkscape"
   width="64"
   version="1.1"
   viewBox="0 0 64 64"
   height="64"
   id="svg2"
   inkscape:version="0.91 r13725"
   sodipodi:docname="image-x-tga.svg">
  <sodipodi:namedview
     pagecolor="#ffffff"
     bordercolor="#666666"
     borderopacity="1"
     objecttolerance="10"
     gridtolerance="10"
     guidetolerance="10"
     inkscape:pageopacity="0"
     inkscape:pageshadow="2"
     inkscape:window-width="1854"
     inkscape:window-height="1051"
     id="namedview24"
     showgrid="false"
     inkscape:zoom="7.375"
     inkscape:cx="35.264441"
     inkscape:cy="31.549881"
     inkscape:window-x="66"
     inkscape:window-y="0"
     inkscape:window-maximized="1"
     inkscape:current-layer="svg2" />
  <defs
     id="defs4">
    <linearGradient
       inkscape:collect="always"
       id="linearGradient4300-8">
      <stop
         style="stop-color:#f27935"
         id="stop4302-5" />
      <stop
         offset="1"
         style="stop-color:#f2784b"
         id="stop4304-7" />
    </linearGradient>
    <linearGradient
       inkscape:collect="always"
       xlink:href="#linearGradient4300-8"
       id="linearGradient4306-3"
       y1="61"
       y2="3"
       x2="0"
       gradientUnits="userSpaceOnUse"
       gradientTransform="matrix(1.3181818,0,0,1,-10.181818,0)" />
  </defs>
  <metadata
     id="metadata84">
    <rdf:RDF>
      <cc:Work
         rdf:about="">
        <dc:format>image/svg+xml</dc:format>
        <dc:type
           rdf:resource="http://purl.org/dc/dcmitype/StillImage" />
      </cc:Work>
    </rdf:RDF>
  </metadata>
  <path
     style="fill:url(#linearGradient4306-3);fill-opacity:1.0"
     id="rect3500-3"
     d="M 3,3 3,61 42.545455,61 61,61 61,17 61,3 42.545455,3 Z"
     inkscape:connector-curvature="0"
     sodipodi:nodetypes="cccccccc" />
  <path
     style="fill:#f7ab89;fill-opacity:1"
     d="M 25.5,23 C 24.119288,23 23,24.119288 23,25.5 23,26.880712 24.119288,28 25.5,28 26.880712,28 28,26.880712 28,25.5 28,24.119288 26.880712,23 25.5,23 Z m 0,1 C 26.328427,24 27,24.671573 27,25.5 27,26.328427 26.328427,27 25.5,27 24.671573,27 24,26.328427 24,25.5 24,24.671573 24.671573,24 25.5,24 Z m 13.5,2 -2,2 -0.0078,0 -6.591797,6.580078 0,0.01953 L 25.800781,30 l -8,8 1.40625,0 6.59375,-6.580078 0,-0.01953 4.59961,4.599609 2,-2 0.0059,0 L 39,27.419922 45.59375,34 47,34 Z"
     id="rect4434-2"
     inkscape:connector-curvature="0"
     sodipodi:nodetypes="ssssssssssccccccccccccccccc" />
  <rect
     width="58"
     x="3"
     y="60"
     height="1"
     style="fill:#2e3132;fill-opacity:0.29411801"
     id="rect4169-5" />
  <rect
     width="58"
     x="3"
     y="3"
     height="1"
     style="fill:#ffffff;fill-opacity:0.40983599"
     id="rect4236-6" />
</svg>

<?xml version="1.0" encoding="UTF-8" standalone="no"?>
<svg width="64" version="1.1" xmlns="http://www.w3.org/2000/svg" viewBox="0 0 64 64" height="64" xmlns:xlink="http://www.w3.org/1999/xlink" xmlns:inkscape="http://www.inkscape.org/namespaces/inkscape">
 <defs id="defs4">
  <linearGradient inkscape:collect="always" xlink:href="#linearGradient4300-8" id="linearGradient4306" y1="61" y2="3" x2="0" gradientUnits="userSpaceOnUse"/>
  <linearGradient inkscape:collect="always" xlink:href="#linearGradient4410" id="linearGradient4427" y1="31" x1="54" y2="17" x2="40" gradientUnits="userSpaceOnUse" gradientTransform="matrix(1 0 0 -1 -14 78)"/>
  <linearGradient inkscape:collect="always" id="linearGradient4410">
   <stop style="stop-color:#383e51" id="stop4412"/>
   <stop offset="1" style="stop-color:#655c6f;stop-opacity:0" id="stop4414"/>
  </linearGradient>
  <linearGradient inkscape:collect="always" xlink:href="#linearGradient4351" id="linearGradient4357" y1="61" y2="47" x2="0" gradientUnits="userSpaceOnUse"/>
  <linearGradient inkscape:collect="always" id="linearGradient4351">
   <stop style="stop-color:#f7ab89" id="stop4353"/>
   <stop offset="1" style="stop-color:#fbd2bf" id="stop4355"/>
  </linearGradient>
  <linearGradient inkscape:collect="always" id="linearGradient4300-8">
   <stop style="stop-color:#f27935" id="stop4302-5"/>
   <stop offset="1" style="stop-color:#f2784b" id="stop4304-7"/>
  </linearGradient>
 </defs>
 <metadata id="metadata84"/>
 <path style="fill:url(#linearGradient4306)" id="rect3500" d="M 10 3 L 10 61 L 40 61 L 54 47 L 54 17 L 54 3 L 40 3 L 10 3 z "/>
 <rect width="30" x="10" y="60" height="1" style="fill:#2e3132;fill-opacity:0.294118" id="rect4169"/>
 <rect width="44" x="10" y="3" height="1" style="fill:#ffffff;fill-opacity:0.409836" id="rect4236"/>
 <path inkscape:connector-curvature="0" style="fill:url(#linearGradient4357);fill-rule:evenodd" id="path4314" d="M 54,47 40,61 40,47 Z"/>
 <path inkscape:connector-curvature="0" style="fill:url(#linearGradient4427);opacity:0.2;fill-rule:evenodd" id="path4320" d="M 26,61 40,47 40,61 Z"/>
 <path style="fill:#f7ab89" id="rect4434" d="M 21 21 L 21 34.800781 L 17.800781 38 L 19.207031 38 L 21 36.210938 L 21 43 L 33.847656 43 L 34.869141 43 L 43 43 L 43 38.169922 L 43 36.548828 L 43 31.412109 L 45.59375 34 L 47 34 L 43 30 L 43 21 L 21 21 z M 22 22 L 42 22 L 42 29 L 39 26 L 37 28 L 36.992188 28 L 30.400391 34.580078 L 30.400391 34.599609 L 25.800781 30 L 22 33.800781 L 22 22 z M 25.5 23 A 2.5 2.5 0 0 0 23 25.5 A 2.5 2.5 0 0 0 25.5 28 A 2.5 2.5 0 0 0 28 25.5 A 2.5 2.5 0 0 0 25.5 23 z M 25.5 24 A 1.5 1.5 0 0 1 27 25.5 A 1.5 1.5 0 0 1 25.5 27 A 1.5 1.5 0 0 1 24 25.5 A 1.5 1.5 0 0 1 25.5 24 z M 39 27.419922 L 42 30.414062 L 42 35.662109 L 42 36 L 30.400391 36 L 22 36 L 22 35.212891 L 25.800781 31.419922 L 25.800781 31.400391 L 30.400391 36 L 32.400391 34 L 32.40625 34 L 39 27.419922 z M 22 37 L 42 37 L 42 42 L 35 42 L 34 42 L 22 42 L 22 38.013672 L 22 37 z "/>
</svg>
